X: 063
T: the Saylors Delight
B: 204 Favourite Country Dances
N: Published by Straight & Skillern, London ca.1775
F: http://imslp.org/wiki/204_Favourite_Country_Dances_(Various) p.32 #63
Z: 2014 John Chambers <jc:trillian.mit.edu>
M: 9/8
L: 1/8
K: C
%  - - - - - - - - - - - - - - - - - - - - - - - - -
F |\
(E/F/GE) cdc B2G | (A/B/cA) GEC D2F | (E/F/GE) cdc B2G | (A/B/cA) GEC C2 :|
|: e |\
c2c (e/f/ge) gec | (e/f/ge) afd d2e | c2c (e/f/ge) gec | (e/f/ge) gec c2e |
c2c (e/f/ge) gec |  e/f/ge  afd d2e | cGc  edc     BAG |  A/B/cA  GEC C2 :|
%  - - - - - - - - - - - - - - - - - - - - - - - - -
%%begintext align
%% Cast off 4 hands round at bott: .| cast up 4 hands
%% round at top :| cross over 1 Cu. lead thro' the bott:
%% :|. lead thro' the top & cast off Right & Left at top :|:
%%endtext

%%sep 1 1 500
%%sep 1 1 500
